public/img/mediumIcon.svg

<svg width="24" height="24" fill="none" xmlns="http://www.w3.org/2000/svg"><g clip-path="url(#a)"><path fill-rule="evenodd" clip-rule="evenodd" d="M2.846 6.887a.9284.9284 0 0 0-.303-.784l-2.24-2.7V3h6.958l5.378 11.795L17.367 3H24v.403L22.084 5.24a.5614.5614 0 0 0-.213.538v13.498c-.034.204.048.411.213.537l1.871 1.837v.403h-9.412v-.403l1.939-1.882c.19-.19.19-.246.19-.537V8.321l-5.389 13.688h-.728L4.28 8.321v9.174c-.052.385.076.774.347 1.052l2.521 3.058v.404H0v-.404l2.521-3.058c.27-.279.39-.67.325-1.052V6.887Z" fill="#fff"/></g><defs><clipPath id="a"><path fill="#fff" d="M0 0h24v24H0z"/></clipPath></defs></svg>

<svg width="24" height="24" viewBox="0 0 24 24" fill="none" xmlns="http://www.w3.org/2000/svg">
<g clip-path="url(#clip0_2_2)">
<path fill-rule="evenodd" clip-rule="evenodd" d="M2.846 6.887C2.876 6.592 2.763 6.301 2.543 6.103L0.303 3.403V3H7.261L12.639 14.795L17.367 3H24V3.403L22.084 5.24C21.919 5.366 21.837 5.573 21.871 5.778V19.276C21.837 19.48 21.919 19.687 22.084 19.813L23.955 21.65V22.053H14.543V21.65L16.482 19.768C16.672 19.578 16.672 19.522 16.672 19.231V8.321L11.283 22.009H10.555L4.28 8.321V17.495C4.228 17.88 4.356 18.269 4.627 18.547L7.148 21.605V22.009H0V21.605L2.521 18.547C2.791 18.268 2.911 17.877 2.846 17.495V6.887V6.887Z" fill="white"/>
</g>
<defs>
<clipPath id="clip0_2_2">
<rect width="24" height="24" fill="white"/>
</clipPath>
</defs>
</svg>
